X:1
T:Title
%%score { ( 1 3 ) | ( 2 4 ) }
L:1/8
Q:1/4=212
M:4/2
K:D
V:1 treble nm="Grand Piano"
V:3 treble 
V:2 bass 
V:4 bass 
V:1
 [Fd]4 [Fc]4 [=FB]4 [^FA]4 | [=F^G]6 [FG]2 [EA]8 | F4 F4 B4 E4 | E16 | F4 G4 ^G4 A4 | %5
w: Marian~Wood * * *|||||
 B4 [Gc]4 [Fd]8 | z4 A4 z4 B4 | [CA]16 | A4 F4 E4 D4 | B4 B4 B8 | B4 ^G4 F4 E4 | c16 | %12
w: |||||||
 d4 A4 G4 F4 | B4 E4 E8 | A4 D4 D4 C4 | [F,A,D]16 |] %16
w: ||||
V:2
 [D,A,]4 [D,A,]4 [D,^G,]4 [D,A,]4 | [D,B,]6 [D,B,]2 [C,A,]8 | %2
 [D,A,D]4 [F,^A,E]4 [G,B,D]4 [^G,B,D]4 | [A,C]16 | [D,A,D]4 [E,A,C]4 [=F,B,D]4 [^F,A,D]4 | %5
 [G,D]4 [E,A,]4 [D,A,]8 | z8 E8 | [A,,A,]16 | [F,A,D]4 [D,A,D]4 [E,G,C]4 [F,A,]4 | %9
 [G,D]4 [F,A,^D]4 [E,G,E]8 | [E,^G,E]4 [E,B,D]4 [F,A,D]4 [G,B,D]4 | C8 z8 | %12
 [F,A,D]4 [F,A,D]4 [E,A,C]4 [D,A,D]4 | [G,B,D]4 [G,^A,D]4 [G,A,C]8 | %14
 [F,A,D]4 [F,A,]4 [=F,^G,B,]4 [A,,E,=G,A,]4 | [D,,D,]16 |] %16
V:3
 x16 | x16 | x16 | x16 | x16 | x16 | [Ee]4 z2 ^D2 c4 z2 =D2 | x16 | x16 | x16 | x16 | z8 E8 | x16 | %13
 x16 | x16 | x16 |] %16
V:4
 x16 | x16 | x16 | x16 | x16 | x16 | [C,A,]4 .[F,A,C]4 [E,A,]4 [E,^G,]4 | x16 | x16 | x16 | x16 | %11
 A,8- [G,A,]8 | x16 | x16 | x16 | x16 |] %16

